<?xml version="1.0" encoding="UTF-8"?>
<map version="1.10" tiledversion="1.12.1" orientation="orthogonal" renderorder="right-down" width="60" height="60" tilewidth="32" tileheight="32" infinite="0" nextlayerid="12" nextobjectid="36">
 <tileset firstgid="1" source="Aquatic_Scenario.tsx"/>
 <tileset firstgid="301" source="Background.tsx"/>
 <tileset firstgid="373" source="Midground.tsx"/>
 <tileset firstgid="374" source="MidgroundTile.tsx"/>
 <layer id="8" name="BG" width="60" height="60">
  <data encoding="csv">
305,306,305,307,304,306,305,307,304,306,305,307,304,306,305,307,304,306,305,307,304,306,305,307,304,306,305,307,304,306,305,307,304,306,305,307,304,306,305,307,304,306,305,307,304,306,305,307,304,306,305,307,304,306,305,307,304,306,305,307,
317,318,317,318,317,318,317,318,317,318,317,318,317,318,317,318,317,318,317,318,317,318,317,318,317,318,317,318,317,318,317,318,317,318,317,318,317,318,317,318,317,318,317,318,317,318,317,318,317,318,317,318,317,318,317,318,317,318,317,318,
328,329,305,306,328,329,305,306,328,329,305,306,328,329,305,306,328,329,305,306,328,329,305,306,328,329,305,306,328,329,305,306,328,329,305,306,328,329,305,306,328,329,305,306,328,329,305,306,328,329,305,306,328,329,305,306,328,329,305,306,
304,318,317,318,317,318,317,307,304,318,317,307,304,318,317,307,304,318,317,307,304,318,317,307,304,318,317,307,304,318,317,307,304,318,317,307,304,318,317,307,304,318,317,307,304,318,317,307,304,318,317,307,304,318,317,307,304,318,317,307,
305,306,305,306,305,306,305,306,305,306,305,306,305,306,305,306,305,306,305,306,305,306,305,306,305,306,305,306,305,306,305,432,582,552,582,306,305,306,305,306,305,306,305,306,305,306,305,306,305,306,305,306,305,306,305,306,305,306,305,306,
328,329,317,318,328,329,317,318,328,329,317,318,328,329,317,318,328,329,317,318,328,329,317,318,328,329,317,318,328,329,317,612,582,642,612,318,328,329,317,318,328,329,317,318,328,329,317,318,328,329,317,318,328,329,317,318,328,329,317,318,
304,306,305,307,304,306,305,306,305,306,305,307,304,306,305,307,304,306,305,307,304,306,305,307,304,306,305,307,304,306,305,582,673,583,463,307,304,306,305,307,304,306,305,307,304,306,305,307,304,306,305,307,304,306,305,307,304,306,305,307,
317,318,317,318,317,318,317,318,317,318,317,318,317,318,317,318,317,318,317,318,317,318,317,318,317,318,317,318,317,318,317,432,673,463,552,318,317,318,317,318,317,318,317,318,317,318,317,318,317,318,317,318,317,318,317,318,317,318,317,318,
328,329,305,306,328,329,305,306,328,329,305,306,328,329,305,306,328,329,305,306,328,329,305,306,328,329,305,306,328,329,305,552,582,492,673,306,328,329,305,306,328,329,2684355202,2684355172,2684355142,2684355112,2684355082,306,328,329,305,306,328,329,305,306,328,329,305,306,
304,318,317,307,304,318,317,307,304,318,317,318,317,318,317,307,304,318,317,307,304,318,317,307,304,318,317,307,304,318,317,672,612,462,433,307,304,318,317,307,304,318,2684355203,2684355173,2684355143,2684355113,2684355083,307,304,318,317,307,304,318,317,307,304,318,317,307,
305,306,301,306,305,306,305,306,305,306,305,306,305,306,305,306,305,306,305,306,305,306,305,306,305,306,305,306,305,306,305,553,612,403,583,306,305,306,305,306,2684355202,2684355172,2684355142,2684355112,2684355082,306,305,306,305,306,305,306,305,306,305,306,305,306,305,306,
328,329,317,318,328,329,317,318,328,329,317,318,328,329,317,318,328,329,317,318,328,329,317,318,328,329,317,318,328,329,317,672,493,403,673,318,328,329,317,318,2684355203,2684355173,2684355352,2684355322,2684355083,329,317,2684354861,328,329,317,318,328,329,317,318,328,329,317,318,
304,306,305,307,304,306,305,307,304,306,305,307,304,306,305,306,305,306,305,307,304,306,305,307,304,306,305,307,304,306,305,462,432,522,463,307,304,306,305,307,304,318,318,318,304,306,305,307,304,306,305,307,304,306,305,307,304,306,305,307,
317,318,317,318,317,318,317,318,317,318,317,318,317,318,317,318,317,318,317,318,317,318,317,318,317,318,317,318,317,318,317,433,612,522,612,318,317,318,317,318,317,318,317,318,317,318,317,318,317,318,317,318,317,318,317,318,317,318,317,318,
328,329,305,306,328,329,305,306,328,329,305,306,328,329,305,306,328,329,305,306,328,329,305,306,328,329,305,306,328,329,305,306,328,329,305,306,328,329,305,306,328,329,305,306,328,329,305,306,328,329,305,306,328,329,305,306,328,329,305,306,
304,318,317,307,304,318,317,307,304,318,317,307,304,318,317,307,304,318,317,318,317,318,317,307,304,318,317,2684354861,304,318,317,307,304,318,317,307,304,318,317,307,304,318,317,307,304,318,317,307,304,318,317,307,2684354893,318,317,307,304,318,317,307,
305,306,305,306,305,306,305,306,305,306,305,306,305,306,305,306,305,306,305,306,305,306,305,306,305,306,305,306,305,306,305,306,305,306,305,306,305,306,305,306,305,306,305,306,305,306,305,306,305,306,305,306,2684354894,306,305,306,305,306,305,306,
328,329,317,318,328,329,317,318,328,329,317,318,328,329,317,318,328,329,317,318,328,329,317,318,328,329,317,318,328,329,317,318,328,329,317,318,328,329,317,318,328,329,317,318,328,329,317,318,328,329,317,318,328,329,317,318,328,329,317,318,
304,306,305,307,304,306,305,307,304,306,305,307,304,306,305,307,304,306,305,307,304,306,305,306,305,306,305,307,304,306,305,307,304,306,305,307,304,306,305,307,304,306,305,307,304,306,305,307,304,306,305,307,304,306,305,307,304,306,305,307,
317,318,317,318,317,318,317,318,317,318,317,318,317,318,317,318,317,318,317,318,317,318,317,318,317,318,317,318,317,318,317,318,317,318,317,318,317,318,317,318,317,318,317,318,317,318,317,318,317,318,317,318,317,318,317,318,317,318,317,318,
328,329,305,306,328,329,305,306,328,329,305,306,328,329,305,306,328,329,305,306,328,329,305,306,328,329,305,306,328,329,305,306,328,329,305,306,328,329,305,306,328,329,305,306,328,329,305,306,328,329,305,306,328,329,305,306,328,329,305,306,
304,318,317,307,304,318,317,307,304,318,317,307,304,318,317,307,304,318,317,307,304,318,317,307,304,318,317,318,317,318,317,307,304,318,317,307,304,318,317,307,304,318,317,307,304,318,317,307,304,318,317,307,304,318,317,307,304,318,317,307,
305,306,305,306,305,306,305,301,305,306,305,306,305,306,305,306,305,306,305,306,305,306,305,306,305,306,305,306,305,306,305,306,305,306,305,306,305,306,305,306,305,306,305,306,305,306,305,306,305,306,305,306,305,306,305,306,305,306,305,306,
328,329,317,318,328,329,317,318,328,329,317,318,328,329,317,318,328,329,317,318,328,329,317,318,328,329,317,318,328,329,317,318,328,329,317,318,328,329,317,318,328,329,317,318,328,329,317,318,328,329,317,318,328,329,317,318,328,329,317,318,
304,306,305,307,304,306,305,307,304,306,305,307,304,306,305,307,304,306,305,307,304,306,305,307,304,306,305,307,304,306,305,306,305,306,305,307,304,306,305,307,304,306,305,307,304,306,305,307,304,306,305,307,304,306,305,307,304,306,305,307,
317,318,317,318,317,318,317,318,317,318,317,318,317,318,317,318,317,318,317,318,317,318,317,318,317,318,317,318,317,318,317,318,317,318,317,318,317,318,317,318,317,318,317,318,317,318,317,318,317,318,317,318,317,318,317,318,317,318,317,318,
328,329,305,306,328,329,305,306,328,329,305,306,328,329,305,306,328,329,305,306,328,329,305,306,328,329,305,306,328,329,305,306,328,329,305,306,328,329,305,306,328,329,305,306,328,329,305,306,328,329,305,306,328,329,305,306,328,329,305,306,
304,318,317,307,304,318,317,307,304,318,317,307,304,318,317,307,304,318,317,307,304,318,317,307,304,318,317,307,2684354861,318,317,307,304,318,317,318,317,318,317,307,304,318,317,307,304,318,317,307,304,318,317,307,304,318,317,307,304,318,317,307,
305,306,305,306,305,306,305,306,305,306,305,306,305,306,305,306,305,306,305,306,305,306,305,306,305,306,305,306,305,306,305,306,305,306,305,306,305,306,305,306,305,306,305,306,305,306,305,306,305,306,305,306,305,306,305,306,305,306,305,306,
328,329,317,318,328,329,317,318,328,329,317,318,328,329,317,318,328,329,317,318,328,329,317,318,328,329,317,318,328,329,317,318,328,329,317,318,328,329,317,318,328,329,317,318,328,329,317,318,328,329,317,318,328,329,317,318,328,329,317,318,
304,306,305,307,304,306,305,307,304,306,305,307,304,306,305,307,304,306,305,307,304,306,305,307,304,306,305,307,304,306,305,307,304,306,305,307,304,306,305,306,305,306,305,307,304,306,305,307,304,306,305,307,304,306,305,307,304,306,305,307,
317,318,301,318,317,318,317,318,317,318,317,318,317,318,317,318,317,318,317,318,317,318,317,318,317,318,317,318,317,318,317,318,317,318,317,318,317,318,317,318,317,318,317,318,317,318,317,318,317,318,317,318,317,318,317,318,317,318,317,318,
328,329,305,306,328,329,305,306,328,329,305,306,328,329,305,306,328,329,305,306,328,329,305,306,328,329,305,306,328,329,305,306,328,329,305,306,328,329,305,306,328,329,305,306,328,329,305,306,328,329,305,306,328,329,305,306,328,329,305,306,
304,318,317,307,304,318,317,307,304,318,317,307,304,318,317,307,304,318,317,307,304,318,317,307,304,318,317,307,304,318,317,307,304,318,317,307,304,318,317,307,304,318,317,318,317,318,317,307,304,318,317,307,304,318,317,307,304,318,317,307,
305,306,305,306,305,306,305,306,305,306,305,306,305,306,305,306,305,306,305,306,305,306,305,306,305,306,305,306,305,306,305,306,305,306,305,306,305,306,305,306,305,306,305,306,305,306,305,306,305,306,305,306,305,306,305,306,305,306,305,306,
328,329,317,318,328,329,317,318,328,329,317,318,328,329,1610613037,318,328,329,317,318,328,329,317,318,328,329,317,318,328,329,317,318,328,329,317,318,328,329,317,318,328,329,317,318,328,329,317,318,328,329,317,318,328,329,317,318,328,329,317,318,
304,306,305,307,304,306,305,307,304,306,305,307,304,306,305,307,304,306,305,307,304,306,305,307,304,306,305,307,304,306,305,307,304,306,305,307,304,306,305,307,304,306,305,307,304,306,305,306,305,306,305,307,304,306,305,307,304,306,305,307,
317,318,317,318,317,318,317,318,317,318,317,318,317,318,317,318,317,318,317,318,317,318,317,318,317,318,317,318,317,318,317,318,317,318,317,318,317,318,317,318,317,318,317,318,317,318,317,318,317,318,317,318,317,318,317,318,317,318,317,318,
328,329,305,306,328,329,301,306,328,329,305,306,328,329,305,306,328,329,305,306,328,329,305,306,328,329,305,306,328,329,305,306,328,329,305,306,328,329,141,306,328,329,305,306,328,329,305,306,328,329,305,306,328,329,305,306,328,329,305,306,
304,318,317,307,304,318,317,307,304,318,317,307,304,318,317,307,304,318,317,307,304,318,317,307,304,318,317,307,304,318,317,307,304,318,317,307,304,318,141,307,304,318,317,307,304,318,317,307,304,318,317,318,317,318,317,307,304,318,317,307,
305,306,305,306,305,306,305,306,305,306,305,306,305,306,305,306,305,306,305,306,305,306,305,306,305,306,305,306,305,306,305,306,305,306,305,306,305,306,141,306,305,306,305,306,305,306,305,306,305,306,305,306,305,306,305,306,305,306,305,306,
373,329,317,318,328,329,317,318,328,329,317,318,328,329,317,318,328,329,317,318,328,329,317,318,328,329,317,318,328,329,317,318,318,318,317,318,328,329,317,318,328,329,317,318,328,329,317,318,328,329,317,318,328,329,317,318,328,329,317,318,
304,306,305,307,304,306,305,307,304,306,305,307,304,306,305,307,304,306,305,307,304,306,305,307,304,306,305,307,304,306,305,318,318,318,318,318,318,306,305,307,304,306,305,307,304,306,305,307,304,306,305,307,304,306,305,306,305,306,305,307,
317,318,317,318,317,318,317,318,317,318,317,318,317,318,317,318,317,318,317,318,317,318,317,318,317,1610613109,317,318,317,318,317,318,317,318,317,318,317,318,317,318,317,318,317,318,317,318,317,318,317,318,317,318,317,318,317,318,317,318,317,318,
328,329,305,306,328,329,305,306,328,329,305,306,328,329,305,306,328,329,305,306,328,329,305,306,328,329,305,306,328,329,305,306,328,329,305,306,328,329,305,306,328,329,305,306,328,329,305,306,328,329,305,306,328,329,305,306,328,329,305,306,
304,318,317,307,304,318,317,307,304,318,317,307,304,318,317,307,304,318,317,307,304,318,317,307,304,318,317,307,304,318,317,307,304,318,317,307,304,318,317,307,304,318,317,307,304,318,317,307,304,318,317,307,304,318,317,307,304,318,317,318,
305,306,305,306,305,306,305,306,305,306,305,306,305,306,305,306,305,306,305,306,305,306,305,306,305,306,305,306,305,306,305,306,305,306,305,306,305,306,305,306,305,306,305,306,305,306,305,306,305,306,305,306,305,306,305,306,305,306,305,306,
328,329,317,318,328,329,317,318,328,329,317,318,328,329,317,318,328,329,317,318,328,329,317,318,328,329,317,318,328,329,317,318,328,329,317,318,328,329,317,318,328,329,317,318,328,329,317,318,328,329,317,318,328,329,317,318,328,329,317,318,
304,306,305,307,304,306,305,307,304,306,305,307,304,306,305,307,304,306,305,307,304,306,305,307,304,306,305,307,304,306,305,307,304,306,305,307,304,306,305,307,304,306,305,307,304,306,305,307,304,306,305,307,304,306,305,307,304,306,305,307,
317,318,317,318,317,318,317,318,317,318,317,318,317,318,317,318,317,318,317,318,317,318,317,318,317,318,317,318,317,318,317,318,317,318,317,318,317,318,317,318,317,318,317,318,317,318,317,318,317,318,317,318,317,318,317,318,317,318,317,318,
328,329,305,306,328,329,305,306,328,329,305,306,328,329,305,306,328,329,305,306,328,3221225773,305,306,328,329,305,306,328,329,305,306,328,329,305,306,328,329,305,306,328,329,305,306,328,329,305,306,328,329,305,306,328,329,305,306,328,329,305,306,
304,318,317,307,304,318,317,307,304,318,317,307,304,318,317,307,304,318,317,307,304,318,317,307,304,318,317,307,304,318,317,307,304,318,317,307,304,318,317,307,304,318,317,307,304,318,3221225773,307,304,318,317,307,304,318,317,307,304,318,317,307,
305,1610613037,305,306,305,306,305,306,305,306,305,306,305,306,305,306,305,306,305,306,305,306,305,306,305,306,305,306,305,306,305,306,305,306,305,306,305,306,305,306,305,306,305,306,305,306,305,306,305,306,305,306,305,306,305,306,305,306,305,306,
328,329,317,318,328,329,317,318,328,329,317,318,328,329,317,318,328,329,317,318,328,329,317,318,328,329,317,318,328,329,317,318,328,329,317,318,328,329,317,318,328,329,317,318,328,329,317,318,328,329,317,318,328,329,317,318,328,329,317,318,
304,306,305,307,304,306,305,307,304,306,305,307,304,306,305,307,304,306,305,307,304,306,305,307,304,306,305,307,304,306,305,307,304,306,305,307,304,306,305,307,304,306,305,307,304,306,305,307,304,306,305,307,304,306,305,307,304,306,305,307,
3221225845,318,317,318,317,318,317,318,317,318,317,318,317,318,317,318,317,318,317,318,317,318,317,318,317,318,317,318,317,318,317,318,317,318,317,318,317,318,317,318,317,318,317,318,317,318,317,318,317,318,317,318,317,318,317,318,317,318,317,318,
328,329,305,306,328,329,305,306,328,329,305,306,328,329,305,306,328,329,305,306,328,329,305,306,328,329,305,306,328,329,305,306,328,329,305,306,328,329,305,306,328,329,305,306,328,329,305,306,328,329,305,306,328,329,305,306,328,329,305,306,
304,318,317,307,304,318,317,307,304,318,317,307,304,318,317,307,304,318,317,307,304,318,317,307,304,318,317,307,304,318,317,307,304,318,317,307,304,318,317,307,304,318,317,307,304,318,317,307,304,318,317,307,304,318,317,307,304,318,317,307,
305,306,305,306,305,306,305,306,305,306,305,306,305,306,305,306,305,306,305,306,305,306,305,306,305,306,305,306,305,306,305,306,305,306,305,306,305,306,305,306,305,306,305,306,305,306,305,306,305,306,305,306,305,306,305,306,305,306,305,306,
328,329,317,318,328,329,317,318,328,329,317,318,328,329,317,318,328,329,317,318,328,329,317,318,328,329,317,318,328,329,317,318,328,329,317,318,328,329,317,318,328,329,317,318,328,329,317,318,328,329,317,318,328,329,317,318,328,329,317,318
</data>
 </layer>
 <layer id="9" name="MIdground" width="60" height="60">
  <data encoding="csv">
0,0,0,0,0,0,0,0,0,0,0,0,0,0,0,0,0,0,0,0,0,0,0,0,0,0,0,0,0,0,0,0,0,0,0,0,0,0,0,0,0,0,0,0,0,0,0,0,0,0,0,0,0,0,0,0,0,0,0,0,
0,0,0,0,0,0,0,0,0,0,0,0,0,0,0,0,0,0,0,0,0,0,0,0,0,0,0,0,0,0,0,0,0,0,0,0,0,0,0,0,0,0,0,0,0,0,0,0,0,0,0,0,0,0,0,0,0,0,0,0,
0,0,0,0,0,0,0,0,0,0,0,0,0,0,0,0,0,0,0,0,0,0,0,0,0,0,0,0,0,0,0,0,0,0,0,0,0,0,0,0,0,0,0,0,0,0,0,0,0,0,0,0,0,0,0,0,0,0,0,0,
0,0,0,0,0,0,0,0,0,0,0,0,0,0,0,0,0,0,0,0,0,0,0,0,0,0,0,0,0,0,0,0,0,0,0,0,0,0,0,0,402,403,402,403,0,0,0,0,0,0,0,0,0,0,0,0,0,0,0,0,
0,0,0,0,0,0,0,0,0,0,0,0,0,0,0,0,0,0,0,0,0,0,0,0,0,0,0,0,0,0,0,0,0,0,0,432,612,672,613,493,432,3221226051,3221226050,3221226049,0,0,0,0,0,0,0,0,0,0,0,0,0,0,0,0,
0,0,0,0,0,0,0,0,0,0,0,0,0,0,0,0,0,0,0,0,0,0,0,0,0,0,0,0,0,0,0,0,0,0,0,613,523,582,552,432,462,3221226021,3221226020,3221226019,0,0,0,0,0,0,0,0,0,0,0,0,0,0,0,0,
0,0,0,0,0,0,0,0,0,0,0,0,0,0,0,0,0,0,0,0,0,0,0,0,0,0,0,0,0,0,0,0,0,0,0,612,552,403,493,433,492,3221225991,3221225990,3221225989,0,0,0,0,0,0,0,0,0,0,0,0,0,0,0,0,
0,0,0,0,0,0,0,0,0,0,0,0,0,0,0,0,0,0,0,0,0,0,0,0,0,0,0,0,0,0,0,402,522,493,583,493,403,463,672,493,522,3221225961,3221225960,3221225959,0,0,0,0,0,0,0,0,0,0,0,0,0,0,0,0,
0,0,0,0,0,0,0,0,0,0,0,0,0,0,0,0,0,0,0,0,0,0,0,0,0,0,0,0,0,0,0,462,673,612,432,523,672,402,583,523,552,3221225931,3221225930,3221225929,0,0,0,0,0,0,0,0,0,0,0,0,0,0,0,0,
0,0,0,0,0,0,0,0,0,0,0,0,0,0,0,0,0,0,0,0,0,0,0,0,0,0,0,0,0,0,0,463,493,462,583,553,613,433,493,612,582,3221225901,3221225900,3221225899,0,0,0,0,0,0,0,0,0,0,0,0,0,0,0,0,
0,0,0,0,0,0,0,0,0,0,0,0,0,0,0,0,0,0,0,0,0,0,0,0,0,0,0,0,0,0,0,672,552,492,493,0,0,0,2684355189,2684355159,2684355129,2684355099,2684355069,3221225869,0,0,0,0,0,0,0,0,0,0,0,0,0,0,0,0,
0,0,0,0,0,0,0,0,0,0,0,0,0,0,0,0,0,0,0,0,0,0,0,0,0,0,643,0,0,0,0,522,403,553,612,0,0,0,2684355190,2684355160,2684355130,2684355100,2684355070,0,0,0,0,0,0,0,0,0,0,0,0,0,0,0,0,0,
0,0,0,0,0,0,0,0,0,0,0,0,0,0,0,0,0,0,0,0,0,0,0,0,0,0,493,0,0,0,0,672,553,553,523,0,0,0,2684355191,2684355161,2684355131,2684355101,2684355071,0,0,0,0,0,0,0,0,0,0,0,0,0,0,0,0,0,
0,0,0,0,0,0,0,0,0,0,0,0,0,0,0,0,0,0,0,0,0,0,0,0,0,0,492,0,0,0,0,583,462,492,642,0,0,0,2684355192,2684355162,2684355132,2684355102,2684355072,0,0,0,0,0,0,0,0,0,0,0,0,0,0,0,0,0,
0,373,0,0,0,0,0,0,0,0,0,0,0,0,0,0,0,0,0,0,0,0,0,0,0,0,583,672,0,0,0,0,0,0,0,0,0,0,0,0,0,0,0,0,2684354933,0,0,0,0,0,0,0,0,0,0,0,0,0,0,0,
0,0,0,0,0,0,0,0,0,0,0,0,0,0,0,0,0,0,0,0,0,0,0,0,0,0,0,613,0,0,0,0,0,0,0,0,0,0,0,0,0,0,0,0,0,0,0,0,0,0,0,0,0,0,0,0,0,0,0,0,
0,0,0,0,0,0,0,0,0,0,0,0,0,0,0,0,0,0,0,0,0,0,0,0,0,0,0,492,642,0,0,0,0,0,0,0,0,0,0,0,0,0,0,0,0,0,0,0,0,0,0,0,0,0,0,0,0,0,0,0,
0,0,0,0,0,0,0,0,0,0,0,0,0,0,0,0,0,0,0,0,0,0,0,0,0,0,0,0,462,0,0,0,0,0,0,0,0,0,0,0,0,0,0,0,0,0,0,0,0,0,0,0,0,0,0,0,0,0,0,0,
0,0,0,0,0,0,0,0,0,0,0,0,0,0,0,0,0,0,0,0,0,0,0,0,0,0,0,0,582,0,0,0,0,0,0,0,0,0,0,0,0,0,0,0,0,0,0,0,0,0,0,0,0,0,0,0,0,0,0,0,
0,0,0,0,0,0,0,0,0,0,0,0,0,0,0,0,0,0,0,0,0,0,0,0,0,0,0,0,0,0,0,0,0,0,0,0,0,0,0,0,0,0,0,0,0,0,0,0,0,0,0,0,0,0,0,0,0,0,0,0,
0,0,0,0,0,0,0,0,0,0,0,0,0,0,0,0,0,0,0,0,0,0,0,0,0,0,0,0,0,0,0,0,0,0,0,0,0,0,0,0,0,0,0,0,0,0,0,0,0,0,0,0,0,0,0,0,0,0,0,0,
0,0,0,0,0,0,0,0,0,0,0,0,0,0,0,0,0,0,0,0,0,0,0,0,0,0,0,0,0,0,0,0,0,0,0,0,0,0,0,0,0,0,0,0,0,0,0,0,0,0,0,0,0,0,0,0,0,0,0,0,
0,0,0,0,0,0,0,0,0,0,0,0,0,0,0,0,0,0,0,0,0,0,0,0,0,0,0,0,0,0,0,0,0,0,0,0,0,0,0,0,0,0,0,0,0,0,0,0,0,0,0,0,0,0,0,0,0,0,0,0,
0,0,0,0,0,0,0,0,0,0,0,0,0,0,0,0,0,0,0,0,0,0,0,0,0,0,0,0,0,0,0,0,0,0,0,0,0,0,0,0,0,0,0,0,0,0,0,0,0,0,0,0,0,0,0,0,0,0,0,0,
0,0,0,0,0,0,0,0,0,0,0,0,0,0,0,0,0,0,0,0,0,0,0,0,0,0,0,0,0,0,0,0,0,0,0,0,0,0,0,0,0,0,0,0,0,0,0,0,0,0,0,0,0,0,0,0,0,0,0,0,
0,0,0,0,0,0,0,0,0,0,0,0,0,0,0,0,0,0,0,0,0,0,0,0,0,0,0,0,0,0,0,0,0,0,0,0,0,0,0,0,0,0,0,0,0,0,0,0,0,0,0,0,0,0,0,0,0,0,0,0,
0,0,0,0,0,0,0,0,0,0,0,0,0,0,0,0,0,0,0,0,0,0,0,0,0,0,0,0,0,0,0,0,0,0,0,0,0,0,0,0,0,0,0,0,0,0,0,0,0,0,0,0,0,0,0,0,0,0,0,0,
0,0,0,0,0,0,0,0,0,0,0,0,0,0,0,0,0,0,0,0,0,0,0,0,0,0,0,0,0,0,0,0,0,0,0,0,0,0,0,0,0,0,0,0,0,0,0,0,0,0,0,0,0,0,0,0,0,0,0,0,
0,0,0,0,0,0,0,0,0,0,0,0,0,0,0,0,0,0,0,0,0,0,0,0,0,0,0,0,0,0,0,0,0,0,0,0,0,0,0,0,0,0,0,0,0,0,0,0,0,0,0,0,0,0,0,0,0,0,0,0,
0,0,0,0,0,0,0,0,0,0,0,0,0,0,0,0,0,0,0,0,0,0,0,0,0,0,0,0,0,0,0,0,0,0,0,0,0,0,0,0,0,0,0,0,0,0,0,0,0,0,0,0,0,0,0,0,0,0,0,0,
0,0,0,0,0,0,0,0,0,0,0,0,0,0,0,0,0,0,0,0,0,0,0,0,0,0,0,0,0,0,0,0,0,0,0,0,0,0,0,0,0,0,0,0,0,0,0,0,0,0,0,0,0,0,0,0,0,0,0,0,
0,0,0,0,0,0,0,0,0,0,0,0,0,0,0,0,0,0,0,0,0,0,0,0,0,0,0,0,0,0,0,0,0,0,0,0,0,0,0,0,0,0,0,0,0,0,0,0,0,0,0,0,0,0,0,0,0,0,0,0,
0,0,0,0,0,0,0,0,0,0,0,0,0,0,0,0,0,0,0,0,0,0,0,0,0,0,0,0,0,0,0,0,0,0,0,0,0,0,0,0,0,0,0,0,0,0,0,0,0,0,0,0,0,0,0,0,0,0,0,0,
0,0,0,0,0,0,0,0,0,0,0,0,0,0,0,0,0,0,0,0,0,0,0,0,0,0,0,0,0,0,0,0,0,0,0,0,0,0,0,0,0,0,0,0,0,0,0,0,0,0,0,0,0,0,0,0,0,0,0,0,
0,0,0,0,0,0,0,0,0,0,0,0,0,0,0,0,0,0,0,0,0,0,0,0,0,0,0,0,0,0,0,0,0,0,0,0,0,0,0,0,0,0,0,0,0,0,0,0,0,0,0,0,0,0,0,0,0,0,0,0,
0,0,0,0,0,0,0,0,0,0,0,0,0,0,0,0,0,0,0,0,0,0,0,0,0,0,0,0,0,0,0,0,0,0,0,0,0,0,0,0,0,0,0,0,0,0,0,0,0,0,0,0,0,0,0,0,0,0,0,0,
0,0,0,0,0,0,0,0,0,0,0,0,0,0,0,0,0,0,0,0,0,0,0,0,0,0,0,0,0,0,0,0,0,0,0,0,0,0,0,0,0,0,0,0,0,0,0,0,0,0,0,0,0,0,0,0,0,0,0,0,
0,0,0,0,0,0,0,0,0,0,0,0,0,0,0,0,0,0,0,0,0,0,0,0,0,0,0,0,0,0,0,0,0,0,0,0,3221225845,0,0,0,0,0,0,0,0,0,0,0,0,0,0,0,0,0,0,0,0,0,0,0,
0,0,0,0,0,0,0,0,0,0,0,0,0,0,0,0,0,0,0,0,0,0,0,0,0,0,0,0,0,0,0,0,0,0,0,0,0,0,0,0,0,0,0,0,0,0,0,0,0,0,0,0,0,0,0,0,0,0,0,0,
0,0,0,0,0,0,0,0,0,0,0,0,0,0,0,0,0,0,0,0,0,0,0,0,0,0,0,0,0,0,0,0,0,0,0,0,0,0,0,0,0,0,0,0,0,0,0,0,0,0,0,0,0,0,0,0,0,0,0,0,
0,0,0,0,0,0,0,0,0,0,0,0,0,0,0,0,0,0,0,0,0,0,0,0,0,0,0,0,0,0,0,0,0,0,0,0,0,0,0,0,0,0,0,0,0,0,0,0,0,0,0,0,0,0,0,0,0,0,0,0,
0,0,0,0,0,0,0,0,0,0,0,0,0,0,0,0,0,0,0,0,0,0,0,0,0,0,0,0,0,0,0,0,0,0,0,0,0,0,0,0,0,0,0,0,0,0,0,0,0,0,0,0,0,0,0,0,0,0,0,0,
0,0,0,0,0,0,0,0,0,0,0,0,0,0,0,0,0,0,0,0,0,0,0,0,0,0,0,0,0,0,0,0,0,0,0,0,0,0,0,0,0,0,0,0,0,0,0,0,0,0,0,0,0,0,0,0,0,0,0,0,
0,0,0,0,0,0,0,0,0,0,0,0,0,0,0,0,0,0,0,0,0,0,0,0,0,0,0,0,0,0,0,0,0,0,0,0,0,0,0,0,0,0,0,0,0,0,0,0,0,0,0,0,0,0,0,0,0,0,0,0,
0,0,0,0,0,0,0,0,0,0,0,0,0,0,0,0,0,0,0,0,0,0,0,0,0,0,0,0,0,0,0,0,0,0,0,0,0,0,0,0,0,0,0,0,0,0,0,0,0,0,0,0,0,0,0,0,0,0,0,0,
0,0,0,0,0,0,0,0,0,0,0,0,0,0,0,0,0,0,0,0,0,0,0,0,0,0,0,0,0,0,0,0,0,0,0,0,0,0,0,0,0,0,0,0,0,0,0,0,0,0,0,0,0,0,0,0,0,0,0,0,
0,0,0,0,0,0,0,0,0,0,0,0,0,0,0,0,0,0,0,0,0,0,0,0,0,0,0,0,0,0,0,0,0,0,0,0,0,0,0,0,0,0,0,0,0,0,0,0,0,0,0,0,0,0,0,0,0,0,0,0,
0,0,0,0,0,0,0,0,0,0,0,0,0,0,0,0,0,0,0,0,0,0,0,0,0,0,0,0,0,0,0,0,0,0,0,0,0,0,0,0,0,0,0,0,0,0,0,0,0,0,0,0,0,0,0,0,0,0,0,0,
0,0,0,0,0,0,0,0,0,0,0,0,0,0,0,0,0,0,0,0,0,0,0,0,0,0,0,0,0,0,0,0,0,0,0,0,0,0,0,0,0,0,0,0,0,0,0,0,0,0,0,0,0,0,0,0,0,0,0,0,
0,0,0,0,0,0,0,0,0,0,0,0,0,0,0,0,0,0,0,0,0,0,0,0,0,0,0,0,0,0,0,0,0,0,0,0,0,0,0,0,0,0,0,0,0,0,0,0,0,0,0,0,0,0,0,0,0,0,0,0,
0,0,0,0,0,0,0,0,0,0,0,0,0,0,0,0,0,0,0,0,0,0,0,0,0,0,0,0,0,0,0,0,0,0,0,0,0,0,0,0,0,0,0,0,0,0,0,0,0,0,0,0,0,0,0,0,0,0,0,0,
0,0,0,0,0,0,0,0,0,0,0,0,0,0,0,0,0,0,0,0,0,0,0,0,0,0,0,0,0,0,0,0,0,0,0,0,0,0,0,0,0,0,0,0,0,0,0,0,0,0,0,0,0,0,0,0,0,0,0,0,
0,0,0,0,0,0,0,0,0,0,0,0,0,0,0,0,0,0,0,0,0,0,0,0,0,0,0,0,0,0,0,0,0,0,0,0,0,0,0,0,0,0,0,0,0,0,0,0,0,0,0,0,0,0,0,0,0,0,0,0,
0,0,0,0,0,0,0,0,0,0,0,0,0,0,0,0,0,0,0,0,0,0,0,0,0,0,0,0,0,0,0,0,0,0,0,0,0,0,0,0,0,0,0,0,0,0,0,0,0,0,0,0,0,0,0,0,0,0,0,0,
0,0,0,0,0,0,0,0,0,0,0,0,0,0,0,0,0,0,0,0,0,0,0,0,0,0,0,0,0,0,0,0,0,0,0,0,0,0,0,0,0,0,0,0,0,0,0,0,0,0,0,0,0,0,0,0,0,0,0,0,
0,0,0,0,0,0,0,0,0,0,0,0,0,0,0,0,0,0,0,0,0,0,0,0,0,0,0,0,0,0,0,0,0,0,0,0,0,0,0,0,0,0,0,0,0,0,0,0,0,0,0,0,0,0,0,0,0,0,0,0,
0,0,0,0,0,0,0,0,0,0,0,0,0,0,0,0,0,0,0,0,0,0,0,0,0,0,0,0,0,0,0,0,0,0,0,0,0,0,0,0,0,0,0,0,0,0,0,0,0,0,0,0,0,0,0,0,0,0,0,0,
0,0,0,0,0,0,0,0,0,0,0,0,0,0,0,0,0,0,0,0,0,0,0,0,0,0,0,0,0,0,0,0,0,0,0,0,0,0,0,0,0,0,0,0,0,0,0,0,0,0,0,0,0,0,0,0,0,0,0,0,
0,0,0,0,0,0,0,0,0,0,0,0,0,0,0,0,0,0,0,0,0,0,0,0,0,0,0,0,0,0,0,0,0,0,0,0,0,0,0,0,0,0,0,0,0,0,0,0,0,0,0,0,0,0,0,0,0,0,0,0,
0,0,0,0,0,0,0,0,0,0,0,0,0,0,0,0,0,0,0,0,0,0,0,0,0,0,0,0,0,0,0,0,0,0,0,0,0,0,0,0,0,0,0,0,0,0,0,0,0,0,0,0,0,0,0,0,0,0,0,0
</data>
 </layer>
 <layer id="6" name="Background" width="60" height="60">
  <properties>
   <property name="solid" value=""/>
  </properties>
  <data encoding="csv">
124,124,124,124,124,124,124,124,124,124,124,124,124,124,124,124,124,124,124,124,124,124,124,124,124,124,124,124,124,124,124,124,124,124,124,124,124,124,124,124,124,124,124,124,124,124,124,124,124,124,124,124,124,124,124,124,124,124,124,124,
124,124,124,124,124,124,124,124,124,124,124,124,124,124,124,124,124,124,124,124,124,124,124,124,124,124,124,124,124,124,124,124,124,124,124,124,124,124,124,124,124,124,124,124,124,124,124,124,124,124,124,124,124,124,124,124,124,124,124,124,
124,124,124,124,124,124,124,124,124,124,124,124,124,124,124,124,124,124,124,124,124,124,124,124,124,124,124,124,124,124,124,124,124,124,124,124,124,124,124,124,124,124,124,124,124,124,124,124,124,124,124,124,124,124,124,124,124,124,124,124,
124,124,124,124,124,124,124,124,124,124,124,124,124,124,124,124,124,124,124,124,124,124,124,124,124,124,124,124,124,124,124,124,124,124,124,124,124,124,124,124,124,124,124,124,124,124,124,124,124,124,124,124,124,124,124,124,124,124,124,124,
124,124,0,0,0,0,0,0,0,0,0,0,0,0,0,0,0,0,0,0,0,0,0,0,0,0,0,0,0,0,0,0,0,0,0,0,0,0,0,0,0,0,0,0,0,0,0,0,0,0,0,0,0,124,124,124,124,124,124,124,
124,124,0,0,0,0,0,0,0,0,0,0,0,0,0,0,0,0,0,0,0,0,0,0,0,0,0,0,0,0,0,0,0,0,0,0,0,0,0,0,0,0,0,0,0,0,0,0,0,0,0,0,0,124,124,124,124,124,124,124,
124,124,0,0,0,0,0,0,0,0,0,0,0,0,0,0,0,0,0,0,0,0,0,0,0,0,0,0,0,0,0,0,0,0,0,0,0,0,0,0,0,0,0,0,0,0,0,0,0,0,0,0,0,124,124,124,124,124,124,124,
124,124,0,0,0,0,0,0,0,0,211,212,213,214,215,216,0,0,0,0,0,0,0,0,0,0,0,0,0,0,0,0,0,0,0,0,0,0,0,0,0,0,0,0,0,0,0,0,0,0,0,0,0,124,124,124,124,124,124,124,
124,124,0,0,0,0,0,0,0,0,226,227,228,229,230,231,0,0,0,0,0,0,0,0,0,0,0,0,0,0,0,0,0,0,0,0,0,0,0,0,0,0,0,0,0,0,0,0,0,0,0,0,0,124,124,124,124,124,124,124,
124,124,3221225505,3221225504,3221225507,3221225508,0,0,0,0,0,242,229,228,245,246,0,0,0,0,0,0,0,0,0,0,0,0,0,0,0,0,0,0,0,124,124,124,124,124,124,0,0,0,0,0,0,0,0,0,0,0,0,124,124,124,124,124,124,124,
124,124,124,124,124,124,124,124,124,124,124,124,124,124,124,124,124,124,124,124,0,0,0,0,0,124,124,124,124,124,124,0,0,0,0,124,124,124,124,124,124,0,0,0,0,0,0,0,0,0,0,0,0,124,124,124,124,124,124,124,
124,124,124,124,124,124,124,124,124,124,124,124,124,124,124,124,124,124,124,124,0,0,0,0,0,124,124,124,124,124,124,0,0,0,0,124,124,124,124,124,124,0,0,0,0,0,0,0,0,0,0,0,0,124,124,124,124,124,124,124,
124,124,124,124,124,124,124,124,124,124,124,124,124,124,124,124,124,124,124,124,0,0,0,0,0,124,124,124,124,124,124,0,0,0,0,124,124,124,124,124,124,0,0,0,124,124,124,124,124,124,124,124,124,124,124,124,124,124,124,124,
124,124,124,124,124,124,124,124,124,124,124,124,124,124,124,124,124,124,124,124,0,0,0,0,0,124,124,124,124,124,124,0,0,0,0,124,124,124,124,124,124,0,0,0,124,124,124,124,124,124,124,124,124,124,124,124,124,124,124,124,
124,124,124,124,124,124,124,124,124,124,124,124,124,124,124,124,124,124,124,124,0,0,0,0,0,124,124,124,124,124,124,0,0,0,0,124,124,124,124,124,124,0,0,0,124,124,124,124,124,124,124,124,124,124,124,124,124,124,124,124,
124,124,0,0,0,0,0,0,0,0,0,0,0,0,0,0,0,0,0,0,0,0,0,0,0,124,124,124,124,124,124,0,0,0,0,124,124,124,124,124,124,0,0,0,0,0,0,0,0,0,0,0,0,124,124,124,124,124,124,124,
124,124,0,0,0,0,0,0,0,0,0,0,0,0,0,0,0,0,0,0,0,0,0,0,0,124,124,124,124,124,124,0,0,0,0,124,124,124,124,124,124,0,0,0,0,0,0,0,0,0,0,0,0,124,124,0,0,0,0,124,
124,124,0,0,0,0,0,0,0,0,0,0,0,0,0,0,0,0,0,0,0,0,0,0,0,124,124,124,124,124,124,0,0,0,0,124,124,124,124,124,124,0,0,0,63,63,63,63,63,0,0,0,0,124,124,0,0,0,0,124,
124,124,0,0,0,0,0,0,0,0,0,0,0,0,0,0,0,0,0,0,0,0,0,0,0,124,124,124,124,124,124,0,0,0,0,124,124,124,124,124,124,0,0,0,0,63,63,0,0,0,0,0,0,124,124,0,0,0,0,124,
124,124,0,0,0,0,0,0,0,0,0,0,0,0,0,0,0,0,0,0,0,0,0,0,0,124,124,124,124,124,124,0,0,0,0,124,124,124,124,124,124,0,0,0,0,0,0,0,0,0,0,0,0,124,124,0,0,0,0,124,
124,124,0,0,0,0,124,124,124,124,124,124,124,124,124,124,124,124,124,124,124,124,124,124,124,124,124,124,124,124,124,0,0,0,0,124,124,124,124,124,124,0,0,0,0,0,0,0,0,0,0,0,0,124,124,124,124,0,0,124,
124,124,0,0,0,0,124,124,124,124,124,124,124,124,124,124,124,124,124,124,124,124,124,124,124,124,124,124,124,124,124,0,0,0,0,124,124,124,124,124,124,0,0,0,0,0,0,0,0,0,0,0,0,124,124,124,0,0,0,124,
124,124,0,0,0,0,124,124,124,124,124,124,124,124,124,124,124,124,124,124,124,124,124,124,124,124,124,124,124,124,124,0,0,0,0,124,124,124,124,124,124,124,124,124,124,124,124,124,124,0,0,0,0,0,0,0,0,0,0,124,
124,124,0,0,0,0,124,124,124,124,124,124,124,124,124,124,124,124,124,124,124,124,124,124,124,124,124,124,124,124,124,0,0,0,0,124,124,124,124,124,124,124,124,124,124,124,124,124,124,0,0,0,0,0,0,0,0,0,0,124,
124,124,0,0,0,0,124,124,124,124,124,124,124,124,124,124,124,124,124,124,124,124,124,124,124,124,124,124,124,124,124,0,0,0,0,124,124,124,124,124,124,124,124,124,124,124,124,124,124,0,0,0,0,0,0,0,0,0,0,124,
124,124,0,0,0,0,124,124,124,124,124,124,124,124,124,124,124,124,124,124,124,124,124,124,124,124,124,124,124,124,124,0,0,0,0,124,124,124,124,124,124,124,124,124,124,124,124,124,124,0,0,0,0,124,124,124,124,124,124,124,
124,124,0,0,0,0,0,0,0,0,0,0,0,0,0,0,0,0,0,0,0,0,0,0,0,124,124,124,124,124,124,0,0,0,0,124,124,124,124,124,124,0,0,0,0,0,0,0,0,0,0,0,0,124,124,124,124,124,124,124,
124,124,0,0,0,0,0,0,0,0,0,0,0,0,0,0,0,0,0,0,0,0,0,0,0,124,124,124,124,124,124,0,0,0,0,124,124,124,124,124,124,0,0,0,0,0,0,0,0,0,0,0,0,124,124,124,124,124,124,124,
124,124,0,0,0,0,0,0,0,0,0,0,0,0,0,0,0,0,0,0,0,0,0,0,0,124,124,124,124,124,124,0,0,0,0,124,124,124,124,124,124,0,0,0,0,0,0,0,0,0,0,0,0,124,124,124,124,124,124,124,
124,124,0,0,0,0,0,0,0,0,0,0,0,0,0,0,0,0,0,0,0,0,0,0,0,124,124,124,124,124,124,0,0,0,0,124,124,124,124,124,124,0,0,0,0,0,0,0,0,0,0,0,0,124,124,124,124,124,124,124,
124,124,0,0,0,0,0,0,0,0,0,0,0,0,0,0,0,0,0,0,0,0,0,0,0,124,124,124,124,124,124,0,0,0,0,124,124,124,124,124,124,0,0,0,0,0,0,0,0,0,0,0,0,124,124,124,124,124,124,124,
124,124,124,124,124,124,124,124,124,124,124,124,124,124,124,124,124,124,124,0,0,0,0,0,0,124,124,124,124,124,124,0,0,0,0,124,124,124,124,124,124,0,0,0,0,0,0,0,0,0,0,0,0,124,124,124,124,124,124,124,
124,124,124,124,124,124,124,124,124,124,124,124,124,124,124,124,124,124,124,0,0,0,0,0,0,124,124,124,124,124,124,0,0,0,0,124,124,124,124,124,124,0,0,0,0,0,0,0,0,0,0,0,0,124,124,124,124,124,124,124,
124,124,124,124,124,124,124,124,124,124,124,124,124,124,124,124,124,124,124,0,0,0,0,0,0,124,124,124,124,124,2684354624,0,0,0,0,124,124,124,124,124,124,0,0,0,0,0,124,124,124,124,124,124,124,124,124,124,124,124,124,124,
124,124,124,124,124,124,124,124,124,124,124,124,124,124,124,124,124,124,124,0,0,0,0,0,0,124,124,124,124,124,2684354625,0,0,0,0,124,124,124,124,124,124,0,0,0,0,0,124,124,124,124,124,124,124,124,124,124,124,124,124,124,
124,124,124,124,124,124,124,124,124,124,124,124,124,124,124,124,124,124,124,0,0,0,0,0,0,124,124,124,124,124,2684354626,0,0,0,0,124,124,124,124,124,124,0,0,0,0,0,124,124,124,124,124,124,124,124,124,124,124,124,124,124,
124,124,124,124,124,124,124,124,124,124,124,124,124,124,124,124,124,124,124,0,0,0,0,0,0,124,124,124,124,124,2684354626,0,0,0,0,124,124,124,124,124,124,0,0,0,0,0,124,124,124,124,124,124,124,124,124,124,124,124,124,124,
124,0,0,0,0,0,0,0,0,0,0,0,0,0,0,0,0,0,0,0,0,0,0,0,0,124,124,124,124,124,2684354624,0,0,0,0,124,124,124,124,124,124,0,0,0,0,0,124,124,124,124,124,124,124,124,124,124,124,124,124,124,
124,0,0,0,0,0,0,0,0,0,0,0,0,0,0,0,0,0,0,0,0,0,0,0,0,124,124,124,124,124,2684354625,0,0,0,0,124,124,124,124,124,124,0,0,0,0,0,124,124,124,124,124,124,124,124,124,124,124,124,124,124,
124,0,0,0,0,0,0,0,0,0,0,0,0,0,0,0,0,0,0,0,0,0,0,0,0,124,124,124,124,124,2684354626,0,0,0,0,124,124,124,124,124,124,0,0,0,0,0,0,0,0,0,0,0,0,124,124,124,124,124,124,124,
124,124,124,124,124,124,124,124,124,124,124,124,124,124,124,124,124,124,612,0,0,0,0,0,0,124,124,124,124,124,124,0,0,0,0,124,124,124,124,124,124,0,0,0,0,0,0,0,0,0,0,0,0,124,124,124,124,124,124,124,
124,124,124,124,124,124,124,124,124,124,124,124,124,124,124,124,124,124,124,124,0,0,0,0,0,0,124,124,124,17,0,0,0,0,0,0,124,124,124,124,124,0,0,0,0,0,0,0,0,0,0,0,0,124,124,124,124,124,124,124,
124,124,124,124,124,124,124,124,124,124,124,124,124,124,124,124,124,124,124,124,0,0,0,0,0,0,124,124,124,0,0,0,0,0,0,0,124,124,124,124,0,0,0,0,0,0,0,0,0,0,0,0,0,124,124,124,124,124,124,124,
124,124,124,124,124,124,124,124,124,124,124,124,124,124,124,124,124,124,124,124,0,0,0,0,0,0,124,124,124,0,0,0,0,0,0,0,0,0,0,0,0,0,0,0,0,0,0,0,0,0,0,0,0,124,124,124,124,124,124,124,
124,0,0,0,0,0,0,0,0,0,0,0,0,0,0,0,0,0,0,0,0,0,0,0,0,0,0,0,0,0,0,0,0,0,0,0,0,0,0,0,0,0,0,0,0,0,0,0,0,0,0,0,0,124,124,124,124,124,124,124,
124,0,0,0,0,0,0,0,0,0,0,0,0,0,0,0,0,0,0,0,0,0,0,0,0,0,0,0,0,0,0,0,0,0,0,0,0,0,0,0,0,0,0,0,0,0,0,0,0,0,0,0,0,124,124,124,124,124,124,124,
124,0,0,0,0,0,0,0,0,0,0,0,0,0,0,0,0,0,0,0,0,0,0,0,0,0,0,0,0,0,0,0,0,0,0,0,0,0,0,0,0,0,0,0,0,0,0,0,0,0,0,0,0,124,124,124,124,124,124,124,
124,0,0,0,0,0,0,0,0,0,0,0,0,0,0,0,0,0,0,0,0,0,0,0,0,0,0,0,0,0,0,0,0,0,0,0,0,0,0,0,0,0,0,0,0,0,0,0,0,0,0,0,0,124,124,124,124,124,124,124,
124,0,0,0,0,0,0,0,0,0,0,0,0,0,0,0,0,0,0,0,0,0,0,0,0,0,0,0,0,0,0,0,0,0,0,0,0,0,0,0,0,0,0,0,0,0,0,0,0,0,0,0,0,124,124,124,124,124,124,124,
124,0,0,0,0,0,0,0,0,0,0,0,0,0,0,0,0,0,0,0,0,0,0,0,0,0,0,0,0,0,0,0,0,0,0,0,0,0,0,0,0,0,0,0,0,0,0,0,0,0,0,0,0,124,124,124,124,124,124,124,
124,0,0,0,0,0,0,0,0,0,0,0,0,0,0,0,0,0,0,0,0,0,0,0,0,0,0,0,0,0,0,0,0,0,0,0,0,0,0,0,0,0,0,0,0,0,0,0,0,0,0,0,0,124,124,124,124,124,124,124,
124,124,124,124,124,124,124,124,124,124,124,124,124,124,124,124,124,124,124,124,124,124,124,124,124,124,124,124,124,124,124,124,124,124,124,124,124,124,124,124,124,124,124,124,124,124,124,124,124,124,124,124,124,124,124,124,124,124,124,124,
124,124,124,124,124,124,124,124,124,124,124,124,124,124,124,124,124,124,124,124,124,124,124,124,124,124,124,124,124,124,124,124,124,124,124,124,124,124,124,124,124,124,124,124,124,124,124,124,124,124,124,124,124,124,124,124,124,124,124,124,
124,124,124,124,124,124,124,124,124,124,124,124,124,124,124,124,124,124,124,124,124,124,124,124,124,124,124,124,124,124,124,124,124,124,124,124,124,124,124,124,124,124,124,124,124,124,124,124,124,124,124,124,124,124,124,124,124,124,124,124,
124,124,124,124,124,124,124,124,124,124,124,124,124,124,124,124,124,124,124,124,124,124,124,124,124,124,124,124,124,124,124,124,124,124,124,124,124,124,124,124,124,124,124,124,124,124,124,124,124,124,124,124,124,124,124,124,124,124,124,124,
124,124,124,124,124,124,124,124,124,124,124,124,124,124,124,124,124,124,124,124,124,124,124,124,124,124,124,124,124,124,124,124,124,124,124,124,124,124,124,124,124,124,124,124,124,124,124,124,124,124,124,124,124,124,124,124,124,124,124,124,
124,124,124,124,124,124,124,124,124,124,124,124,124,124,124,124,124,124,124,124,124,124,124,124,124,124,124,124,124,124,124,124,124,124,124,124,124,124,124,124,124,124,124,124,124,124,124,124,124,124,124,124,124,124,124,124,124,124,124,124,
124,124,124,124,124,124,124,124,124,124,124,124,124,124,124,124,124,124,124,124,124,124,124,124,124,124,124,124,124,124,124,124,124,124,124,124,124,124,124,124,124,124,124,124,124,124,124,124,124,124,124,124,124,124,124,124,124,124,124,124,
124,124,124,124,124,124,124,124,124,124,124,124,124,124,124,124,124,124,124,124,124,124,124,124,124,124,124,124,124,124,124,124,124,124,124,124,124,124,124,124,124,124,124,124,124,124,124,124,124,124,124,124,124,124,124,124,124,124,124,124,
124,124,124,124,124,124,124,124,124,124,124,124,124,124,124,124,124,124,124,124,124,124,124,124,124,124,124,124,124,124,124,124,124,124,124,124,124,124,124,124,124,124,124,124,124,124,124,124,124,124,124,124,124,124,124,124,124,124,124,124
</data>
 </layer>
 <layer id="7" name="Front1" width="60" height="60">
  <data encoding="csv">
0,0,0,0,0,0,0,0,0,0,0,0,0,0,0,0,0,0,0,0,0,0,0,0,0,0,0,0,0,0,0,0,0,0,0,0,0,0,0,0,0,0,0,0,0,0,0,0,0,0,0,0,0,0,0,0,0,0,0,0,
0,0,0,0,0,0,0,0,0,0,0,0,0,0,0,0,0,0,0,0,0,0,0,0,0,0,0,0,0,0,0,0,0,0,0,0,0,0,0,0,0,0,0,0,0,0,0,0,0,0,0,0,0,0,0,0,0,0,0,0,
0,0,0,0,3221225560,3221225559,3221225558,0,0,3221225560,3221225559,3221225558,0,0,0,0,0,0,0,0,0,0,3221225560,3221225559,3221225558,0,0,0,0,0,0,0,0,3221225560,3221225559,3221225558,0,0,0,0,0,0,3221225560,3221225559,3221225558,0,0,3221225560,3221225559,3221225558,0,0,0,0,0,0,0,0,0,0,
0,0,0,0,3221225545,3221225544,3221225543,0,0,3221225545,3221225544,3221225543,0,0,0,0,0,0,0,0,0,0,3221225545,3221225544,3221225543,0,0,0,0,0,0,0,0,3221225545,3221225544,3221225543,0,0,0,0,0,0,3221225545,3221225544,3221225543,0,0,3221225545,3221225544,3221225543,0,0,3221225681,3221225680,0,0,0,0,0,0,
0,0,2684354671,2684354656,3221225530,3221225529,3221225528,0,0,3221225530,3221225529,3221225528,0,0,0,0,0,0,0,0,0,0,3221225530,3221225529,3221225528,0,0,0,0,0,0,0,0,3221225530,3221225529,3221225528,0,0,0,0,0,0,3221225530,3221225529,3221225528,0,0,3221225530,3221225529,3221225528,0,0,3221225666,3221225665,0,0,0,0,0,0,
0,0,2684354672,2684354657,0,0,0,0,0,0,0,0,0,0,0,0,0,0,0,0,0,0,0,0,0,0,0,0,0,0,0,0,0,0,0,0,0,0,0,0,0,0,0,0,0,0,0,0,0,0,0,0,0,0,0,0,0,0,0,0,
0,0,2684354673,2684354658,0,0,0,0,0,0,0,0,0,0,0,0,0,0,0,0,0,0,0,0,0,0,0,0,0,0,0,0,0,0,0,1610612834,1610612849,1610612864,1610612879,0,0,0,0,0,0,0,0,0,0,0,0,0,0,0,0,0,0,0,0,0,
0,0,0,0,0,0,0,0,0,0,0,0,0,0,0,0,0,0,0,0,0,0,0,0,0,0,0,0,0,0,0,0,0,0,0,1610612833,1610612848,1610612863,1610612878,0,0,0,0,0,0,0,0,0,0,0,0,0,0,0,0,0,0,0,0,0,
0,0,0,0,0,0,0,0,0,0,0,0,0,0,52,53,54,0,0,0,0,0,0,0,0,0,0,0,0,0,0,0,0,0,0,1610612832,1610612847,1610612862,52,53,54,0,0,0,0,0,0,0,0,0,0,0,0,0,0,0,0,0,0,0,
0,0,0,0,0,46,47,48,49,50,51,0,0,0,67,68,69,0,0,0,0,0,0,0,0,56,57,58,0,0,0,0,0,0,0,1610612831,1610612846,1610612861,67,2684354642,2684354627,2684354612,0,0,0,0,0,0,0,0,0,0,0,0,0,0,0,0,0,0,
0,0,0,0,0,0,0,0,0,0,0,0,0,0,82,83,84,0,0,0,0,0,0,0,0,71,72,73,0,2684354646,2684354631,2684354616,0,0,0,0,0,0,82,2684354643,2684354628,2684354613,0,0,0,0,0,0,0,0,0,1610612839,1610612854,1610612869,0,0,0,0,0,0,
0,0,0,0,0,0,0,124,124,124,124,124,124,124,124,124,124,124,124,2147483656,2147483655,0,0,0,0,86,87,88,0,2684354647,2684354632,2684354617,0,0,0,0,0,0,2147483736,2684354644,2684354629,2684354614,0,0,0,0,0,0,0,0,0,1610612838,1610612853,1610612868,0,0,0,0,0,0,
0,0,0,0,0,0,0,124,124,124,124,124,124,124,124,124,124,124,124,2147483671,2147483670,0,0,0,7,8,0,0,0,2684354648,2684354633,2684354618,0,0,0,11,12,0,0,0,0,0,0,0,0,0,0,0,0,0,0,0,0,0,0,0,0,0,0,0,
0,0,0,0,0,0,0,124,124,124,124,124,124,124,124,124,124,124,124,2147483686,2147483685,0,0,0,22,23,0,0,0,2147483675,2147483674,0,0,0,0,26,27,0,0,0,0,0,0,0,0,0,0,0,0,0,0,0,0,0,0,0,0,0,0,0,
0,0,0,0,0,0,0,0,0,0,0,0,0,0,0,0,0,0,0,0,0,0,0,0,37,38,0,0,0,2147483690,2147483689,0,0,0,0,41,42,0,0,0,0,0,0,0,0,0,0,0,0,0,0,0,0,0,0,0,0,0,0,0,
0,0,2684354671,2684354656,0,0,0,0,0,0,0,0,0,0,0,0,0,0,0,0,0,0,0,0,0,0,0,0,0,2684354646,2684354631,2684354616,0,0,0,0,0,0,0,0,0,0,0,0,0,0,0,0,0,0,0,0,0,0,0,0,0,0,0,0,
0,0,2684354672,2684354657,0,0,0,0,0,0,0,0,0,0,0,0,0,0,0,0,0,0,0,0,0,0,0,0,0,2684354647,2684354632,2684354617,0,0,7,8,0,0,0,0,0,0,0,211,212,213,214,215,216,0,0,0,0,0,0,0,0,0,0,0,
0,0,2684354673,2684354658,0,0,0,0,0,0,0,0,0,0,0,0,0,0,0,0,0,0,0,0,0,0,0,0,0,2684354648,2684354633,2684354618,0,0,22,23,0,0,0,0,0,0,0,226,227,228,229,230,231,0,0,0,0,0,0,0,0,0,0,0,
0,0,0,0,0,0,0,0,0,0,0,0,0,0,0,0,0,0,0,0,0,0,0,1610612839,1610612854,1610612869,0,0,0,0,0,0,0,0,37,38,0,0,0,0,0,0,0,241,242,243,244,245,246,0,0,0,0,0,0,0,0,0,0,0,
0,0,0,0,0,46,47,48,49,50,51,52,53,54,3221225505,3221225504,3221225503,0,0,0,0,0,0,1610612838,1610612853,1610612868,0,0,0,0,0,0,0,0,0,0,0,0,0,0,0,0,0,256,257,258,259,260,261,0,0,0,0,0,0,0,0,0,0,0,
0,0,0,0,0,61,62,63,64,65,66,67,68,69,3221225490,3221225489,3221225488,0,0,0,0,0,0,0,0,0,0,0,0,2147483660,2147483659,0,0,0,0,11,12,0,0,0,0,96,97,271,272,273,274,275,276,0,0,0,0,0,0,0,0,0,0,0,
0,0,0,0,7,76,77,78,79,80,81,82,83,84,3221225475,3221225474,3221225473,0,0,0,0,0,0,0,0,0,0,0,0,2147483675,2147483674,0,0,0,0,26,27,0,0,0,0,111,112,286,287,288,289,290,291,0,0,0,0,0,0,0,0,0,0,0,
0,0,0,0,22,23,0,0,0,0,0,0,0,0,0,0,0,0,0,0,0,0,0,0,0,0,0,0,0,2147483690,2147483689,0,0,0,0,41,42,0,0,0,0,0,0,0,0,0,0,0,0,0,0,0,0,0,0,0,0,0,0,0,
0,0,0,0,37,38,0,0,0,0,0,0,0,0,0,0,0,0,0,0,0,0,0,0,0,0,0,0,0,0,9,10,0,0,0,0,0,0,0,0,0,0,0,0,0,0,0,0,0,0,0,0,0,0,0,0,0,1610612839,1610612854,1610612869,
0,0,0,0,0,0,0,0,0,0,0,0,0,0,0,0,0,0,0,0,0,0,0,0,0,0,0,0,0,0,24,25,0,0,536870964,536870979,536870994,0,0,0,0,0,0,0,0,0,0,0,0,0,0,0,0,0,0,0,0,1610612838,1610612853,1610612868,
0,3221225510,3221225509,0,0,0,0,0,0,0,0,0,0,0,0,0,0,0,0,0,0,0,0,0,0,0,0,0,0,0,39,40,0,0,536870965,536870980,536870995,0,0,0,0,0,0,0,0,0,0,0,0,0,0,0,0,0,0,0,0,0,0,0,
0,3221225495,3221225494,0,0,0,0,0,0,0,0,0,0,0,0,0,0,0,0,0,0,0,0,0,0,0,0,0,0,0,0,0,0,0,536870966,536870981,536870996,0,0,0,0,2684354671,2684354656,0,0,0,0,0,0,0,0,0,0,0,0,0,0,0,0,0,
0,3221225480,3221225479,0,0,0,0,0,0,0,0,0,0,0,0,0,0,0,0,0,0,0,0,0,0,0,0,0,0,2147483660,2147483659,0,0,0,0,11,12,0,0,0,0,2684354672,2684354657,0,0,0,0,0,0,0,0,0,0,0,0,0,0,0,0,0,
0,0,0,0,0,0,0,0,0,0,0,0,0,0,0,0,0,0,0,0,0,0,0,0,0,0,0,0,0,2147483675,2147483674,0,0,0,0,26,27,0,0,0,0,2684354673,2684354658,0,0,0,0,0,0,0,0,0,0,0,0,0,0,0,0,0,
0,0,96,97,98,0,0,0,0,0,0,0,0,0,0,0,0,0,0,0,0,0,0,0,0,0,0,0,0,2147483690,2147483689,0,0,0,0,41,42,0,0,0,0,0,0,0,0,0,0,0,0,0,0,0,0,0,0,0,0,0,0,0,
0,0,111,112,113,0,0,0,0,0,0,0,0,0,0,0,0,0,0,0,0,0,0,0,0,0,0,0,0,0,0,0,0,0,2147483658,2684354622,1610612814,0,0,0,0,0,0,0,0,0,0,0,0,0,0,0,0,0,0,0,0,0,0,0,
0,0,0,0,0,0,0,0,0,0,0,0,0,0,0,0,0,0,0,3221225510,3221225509,0,0,0,0,0,0,0,0,0,0,0,0,0,2147483673,2684354623,1610612813,0,0,0,0,0,0,0,0,0,0,0,0,0,0,1610612839,1610612854,1610612869,0,0,0,0,0,0,
0,0,0,0,0,0,0,0,0,0,0,0,0,0,0,0,0,0,0,3221225495,3221225494,0,0,0,0,0,0,0,0,2684354646,2684354631,2684354616,0,0,2147483688,2684354624,1610612814,0,0,0,0,0,0,0,0,0,0,0,0,0,0,1610612838,1610612853,1610612868,0,0,0,0,0,0,
0,0,0,0,0,0,0,0,0,0,0,0,0,0,0,0,0,0,0,3221225480,3221225479,0,0,0,0,0,0,0,0,2684354647,2684354632,2684354617,0,0,0,2684354625,1610612813,0,0,0,0,0,0,0,0,0,0,0,0,0,0,0,0,0,0,0,0,0,0,0,
0,0,0,0,0,0,0,0,0,0,0,0,0,0,0,0,0,0,0,0,0,0,0,0,0,0,0,0,0,2684354648,2684354633,2684354618,0,0,0,11,12,0,0,0,0,0,0,0,0,0,0,0,0,0,0,0,0,0,0,0,0,0,0,0,
0,0,0,0,0,0,0,0,0,0,0,0,0,0,0,0,0,0,0,0,0,0,0,0,0,0,0,0,0,2147483675,2147483674,0,0,0,0,26,27,0,0,0,0,0,0,0,0,0,0,0,0,0,0,0,0,0,0,0,0,0,0,0,
0,0,0,0,0,0,0,0,0,0,0,0,0,0,0,0,0,0,0,0,0,0,0,0,0,0,0,0,0,2147483690,2147483689,0,0,0,0,41,42,0,0,0,0,0,0,0,0,0,0,0,0,0,0,0,0,0,0,0,0,0,0,0,
0,2684354671,2684354656,0,0,0,0,0,0,0,0,0,0,0,0,0,0,0,0,0,0,0,0,0,0,0,0,0,0,0,0,0,0,0,7,8,0,0,0,0,0,0,0,0,0,0,0,0,0,0,0,0,0,0,0,0,0,0,0,0,
0,2684354672,2684354657,0,0,0,0,0,0,0,0,0,0,0,0,0,0,0,0,0,0,0,0,0,0,0,0,0,0,0,0,0,0,0,22,23,0,0,0,0,0,0,0,0,0,0,0,0,0,0,0,0,0,0,0,0,0,0,0,0,
0,2684354673,2684354658,0,0,0,0,0,0,0,0,0,0,0,0,0,46,47,48,49,0,0,0,0,0,0,0,0,0,0,0,0,0,0,37,38,0,0,0,0,0,0,0,0,0,0,0,0,0,0,0,0,0,0,0,0,0,0,0,0,
0,0,0,0,0,0,0,0,0,0,0,0,0,0,0,0,61,62,63,64,0,0,0,0,7,8,0,0,0,0,0,0,0,0,0,0,0,0,0,0,0,0,0,0,0,0,0,0,0,0,0,0,0,0,0,0,0,0,0,0,
0,0,0,0,0,0,0,0,0,0,0,0,0,0,0,0,76,77,78,79,0,0,0,0,22,23,0,0,0,0,0,0,0,0,0,0,0,0,0,0,0,0,0,0,0,0,0,0,0,0,0,0,0,0,0,0,0,0,0,0,
0,0,0,0,0,0,0,0,0,0,0,0,0,0,0,0,0,0,0,0,0,0,0,0,37,38,0,0,0,0,0,0,0,0,0,0,0,1073741910,1073741911,1073741912,0,0,0,0,0,0,0,0,0,0,0,0,0,0,0,0,0,0,0,0,
0,0,0,0,0,0,0,0,0,0,0,0,0,0,0,0,0,0,612,612,612,0,0,0,0,0,2684354599,2684354584,2684354569,0,0,0,0,0,0,0,0,1073741895,1073741896,1073741897,0,0,0,0,0,0,0,0,0,0,0,0,0,0,0,0,0,0,0,0,
0,2684354671,2684354656,0,0,0,0,0,0,0,0,0,0,0,0,0,0,0,0,0,0,0,0,0,0,0,2684354600,2684354585,2684354570,0,0,0,0,0,0,0,0,1073741880,1073741881,1073741882,0,0,0,211,212,213,214,215,216,0,0,0,0,0,0,0,0,0,0,0,
0,2684354672,2684354657,0,0,0,0,0,0,0,0,0,0,0,0,0,0,0,0,0,0,0,0,0,0,0,0,0,0,0,0,0,0,0,0,0,0,0,0,0,0,0,0,226,227,228,229,230,231,0,0,0,0,0,0,0,0,0,0,0,
0,2684354673,2684354658,0,0,0,0,0,0,0,0,0,0,0,0,0,0,0,0,0,0,0,0,0,0,0,0,0,0,0,0,0,0,0,0,0,0,0,0,0,0,0,0,241,242,243,244,245,246,0,0,0,0,0,0,0,0,0,0,0,
0,0,0,0,0,0,0,0,0,0,0,0,0,0,0,0,0,0,0,0,0,0,0,0,0,0,0,0,0,0,0,0,0,0,0,0,0,0,0,0,0,0,0,256,257,258,259,260,261,0,0,0,0,0,0,0,0,0,0,0,
0,0,0,0,0,0,0,0,0,0,0,0,0,0,0,0,0,0,0,0,0,0,0,0,0,0,0,0,0,0,0,0,0,0,0,0,0,0,0,0,0,0,0,271,272,273,274,275,276,0,0,0,0,0,0,0,0,0,0,0,
0,0,0,0,0,0,0,0,0,0,0,0,0,0,0,0,0,0,0,0,0,0,0,0,0,0,0,0,0,0,0,0,0,0,0,0,0,0,0,0,0,0,0,286,287,288,289,290,291,0,0,0,0,0,0,0,0,0,0,0,
0,46,47,48,49,50,51,52,53,54,0,0,0,0,0,0,0,52,53,54,0,0,1610612746,1610612761,1610612776,0,0,0,52,53,54,0,0,0,0,0,0,0,52,53,54,0,0,0,0,0,0,0,52,53,54,0,0,0,0,0,0,0,0,0,
0,61,62,63,64,65,66,67,68,69,0,0,0,0,0,0,0,67,68,69,0,0,1610612745,1610612760,1610612775,0,0,0,67,68,69,0,0,0,0,0,0,0,67,68,69,0,0,0,0,0,0,0,67,68,69,0,0,0,0,0,0,0,0,0,
0,0,0,0,0,0,0,0,0,0,0,0,0,0,0,0,0,0,0,0,0,0,0,0,0,0,0,0,0,0,0,0,0,0,0,0,0,0,0,0,0,0,0,0,0,0,0,0,0,0,0,0,0,0,0,0,0,0,0,0,
0,0,0,0,0,0,0,0,0,0,0,0,0,0,0,0,0,0,0,0,0,0,0,0,0,0,0,0,0,0,0,0,0,0,0,0,0,0,0,0,0,0,0,0,0,0,0,0,0,0,0,0,0,0,0,0,0,0,0,0,
0,0,0,0,0,0,0,0,0,0,0,0,0,0,0,0,0,0,0,0,0,0,0,0,0,0,0,0,0,0,0,0,0,0,0,0,0,0,0,0,0,0,0,0,0,0,0,0,0,0,0,0,0,0,0,0,0,0,0,0,
0,0,0,0,0,0,0,0,0,0,0,0,0,0,0,0,0,0,0,0,0,0,0,0,0,0,0,0,0,0,0,0,0,0,0,0,0,0,0,0,0,0,0,0,0,0,0,0,0,0,0,0,0,0,0,0,0,0,0,0,
0,0,0,0,0,0,0,0,0,0,0,0,0,0,0,0,0,0,0,0,0,0,0,0,0,0,0,0,0,0,0,0,0,0,0,0,0,0,0,0,0,0,0,0,0,0,0,0,0,0,0,0,0,0,0,0,0,0,0,0,
0,0,0,0,0,0,0,0,0,0,0,0,0,0,0,0,0,0,0,0,0,0,0,0,0,0,0,0,0,0,0,0,0,0,0,0,0,0,0,0,0,0,0,0,0,0,0,0,0,0,0,0,0,0,0,0,0,0,0,0,
0,0,0,0,0,0,0,0,0,0,0,0,0,0,0,0,0,0,0,0,0,0,0,0,0,0,0,0,0,0,0,0,0,0,0,0,0,0,0,0,0,0,0,0,0,0,0,0,0,0,0,0,0,0,0,0,0,0,0,0,
0,0,0,0,0,0,0,0,0,0,0,0,0,0,0,0,0,0,0,0,0,0,0,0,0,0,0,0,0,0,0,0,0,0,0,0,0,0,0,0,0,0,0,0,0,0,0,0,0,0,0,0,0,0,0,0,0,0,0,0
</data>
 </layer>
 <layer id="10" name="FRONT2" width="60" height="60">
  <data encoding="csv">
0,0,0,0,0,0,0,0,0,0,0,0,0,0,0,0,0,0,0,0,0,0,0,0,0,0,0,0,0,0,0,0,0,0,0,0,0,0,0,0,0,0,0,0,0,0,0,0,0,0,0,0,0,0,0,0,0,0,0,0,
0,0,0,0,0,0,0,0,0,0,0,0,0,0,0,0,0,0,0,0,0,0,0,0,0,0,0,0,0,0,0,0,0,0,0,0,0,0,0,0,0,0,0,0,0,0,0,0,0,0,0,0,0,0,0,0,0,0,0,0,
0,0,0,0,0,0,0,0,0,0,0,0,0,0,0,4,5,6,0,0,0,0,0,0,0,0,0,0,4,5,6,0,0,0,0,0,0,0,0,0,0,0,0,0,0,0,0,0,0,0,0,0,0,0,0,0,0,0,0,0,
0,0,0,0,0,0,0,0,0,0,0,0,0,0,0,19,20,21,0,0,0,0,0,0,0,0,0,0,19,20,21,0,0,0,0,0,0,0,0,0,0,0,0,0,0,0,0,0,0,0,0,0,0,0,0,0,0,0,0,0,
0,0,0,0,0,0,0,0,0,0,0,0,0,0,0,34,35,36,0,0,0,0,0,0,0,0,0,0,34,35,36,0,0,0,0,0,0,0,0,0,0,0,0,0,0,0,0,0,0,0,0,0,0,0,0,0,0,0,0,0,
0,0,0,0,0,0,0,0,0,0,0,0,0,0,0,0,0,0,0,0,0,0,0,0,0,0,0,0,0,0,0,0,0,0,0,0,0,0,0,0,0,0,0,0,0,0,0,0,0,0,0,0,0,0,0,0,0,0,0,0,
0,0,0,0,0,0,0,0,0,0,0,0,0,0,0,0,0,0,0,0,0,0,0,0,0,0,0,0,0,0,0,0,0,0,0,0,0,2684354696,2684354681,2684354666,2684354651,0,0,0,0,0,0,0,0,0,0,0,2684354594,2684354579,2684354564,0,0,0,0,0,
0,0,0,0,0,0,0,0,0,0,0,0,0,0,0,0,0,0,0,0,0,0,0,0,0,0,0,0,0,0,0,0,0,0,0,0,0,2684354697,2684354682,2684354667,2684354652,0,0,0,0,0,0,0,0,0,0,0,2684354595,2684354580,2684354565,0,0,0,0,0,
0,0,0,0,0,0,0,0,0,0,0,0,0,0,0,0,0,0,0,0,0,0,0,0,0,0,0,0,0,0,0,0,0,0,0,0,0,2684354698,2684354683,2684354668,2684354653,0,0,0,0,0,0,0,0,0,0,0,2684354596,2684354581,2684354566,0,0,0,0,0,
0,0,0,0,0,0,0,0,0,0,0,0,0,0,0,0,0,0,0,0,0,0,0,0,0,0,0,0,0,0,0,0,0,0,0,0,0,2684354699,2684354684,2684354669,2684354654,0,0,0,0,0,0,0,0,0,0,0,0,0,0,0,0,0,0,0,
0,0,0,0,0,0,0,0,0,0,0,0,0,0,0,0,0,0,0,0,0,0,0,0,0,0,0,0,0,0,0,0,0,0,0,0,0,0,0,0,0,0,0,0,0,0,0,0,0,0,0,0,0,0,0,0,0,0,0,0,
0,0,0,0,0,0,0,0,0,0,0,0,0,0,0,0,0,0,0,0,0,0,0,0,0,0,0,0,0,0,0,0,0,0,0,0,0,0,0,0,0,0,0,0,0,0,3221225508,3221225507,3221225506,0,0,0,0,0,0,0,0,0,0,0,
0,0,0,0,0,0,0,0,0,0,0,0,0,0,0,0,0,0,0,0,0,0,0,0,0,0,0,0,0,0,0,0,0,0,0,0,0,0,0,0,0,0,0,0,0,0,3221225493,3221225492,3221225491,0,0,0,0,0,0,0,0,0,0,0,
0,0,0,0,0,4,5,6,0,0,0,0,0,0,4,5,6,0,0,0,0,0,0,0,0,0,0,0,0,0,0,0,0,0,0,0,0,0,0,0,0,0,0,0,0,0,3221225478,3221225477,3221225476,0,0,0,0,0,0,0,0,0,0,0,
0,0,0,0,0,19,20,21,0,0,0,0,0,0,19,20,21,0,0,0,0,0,0,0,0,0,0,0,0,0,0,0,0,0,0,0,0,0,0,0,0,0,0,0,0,0,0,0,0,0,0,0,0,0,0,4,5,6,0,0,
0,0,0,0,0,34,35,36,0,0,0,0,0,0,34,35,36,0,0,0,0,0,0,0,0,0,0,0,0,0,0,0,0,0,0,0,0,0,0,0,0,0,0,0,0,0,0,0,0,0,0,0,0,0,0,19,20,21,0,0,
0,0,0,0,0,0,0,0,0,0,0,0,0,0,0,0,0,0,0,0,0,0,0,0,0,0,0,0,0,0,0,0,0,0,0,0,0,0,0,0,0,0,0,0,0,0,0,0,0,0,0,0,0,0,0,34,35,36,2684354591,2684354576,
0,0,0,0,0,0,0,0,0,0,0,0,0,0,0,0,0,0,0,0,0,0,0,0,0,0,0,0,0,0,0,0,0,0,0,0,0,0,0,0,0,0,0,0,0,0,0,0,0,0,0,0,2684354591,2684354576,2684354561,0,0,0,2684354592,2684354577,
0,0,0,0,0,0,0,0,0,0,0,0,0,0,0,0,0,0,0,0,0,0,0,0,0,0,0,0,0,0,0,0,0,0,0,0,0,0,0,0,0,0,0,0,0,0,0,0,0,0,0,0,2684354592,2684354577,2684354562,0,0,0,2684354593,2684354578,
0,0,0,0,0,0,0,0,0,0,0,0,0,0,0,0,3221225508,3221225507,3221225506,0,0,3221225505,3221225504,3221225503,0,0,0,0,0,0,0,0,0,0,0,0,0,0,0,0,0,0,0,0,0,0,0,0,0,0,0,0,2684354593,2684354578,2684354563,0,0,0,0,0,
0,0,0,0,0,0,0,0,0,0,0,0,0,0,0,0,3221225493,3221225492,3221225491,0,0,3221225490,3221225489,3221225488,0,0,0,0,0,0,0,0,0,0,0,0,0,0,0,0,0,0,0,0,0,0,0,0,0,0,0,0,0,0,0,0,0,0,0,0,
0,0,0,0,0,0,0,0,0,0,0,0,0,0,0,0,3221225478,3221225477,3221225476,0,0,3221225475,3221225474,3221225473,0,0,0,0,0,0,0,0,0,0,0,0,0,0,0,0,0,0,0,0,0,0,0,0,0,0,0,0,0,0,0,0,0,0,0,0,
0,0,0,0,0,0,0,0,0,0,0,0,0,0,0,0,0,0,0,0,0,0,0,0,0,0,0,0,0,0,0,0,0,0,0,0,0,0,0,0,0,0,0,0,0,0,0,0,0,0,0,0,0,0,0,0,0,0,0,0,
0,0,0,0,0,0,0,0,0,0,0,0,0,0,0,0,0,0,0,0,0,0,0,0,0,0,0,0,0,0,0,0,0,0,0,0,0,0,0,0,0,0,0,0,0,0,0,0,1610612739,1610612754,1610612769,0,0,0,0,0,0,0,0,0,
0,0,0,0,0,0,0,0,0,0,0,0,0,0,0,0,0,0,4,5,6,0,0,0,0,0,0,0,0,0,0,0,0,0,0,0,0,0,0,0,0,0,0,0,0,0,0,0,1610612738,1610612753,1610612768,0,0,0,0,0,0,0,0,0,
0,0,0,0,0,0,0,0,0,0,0,0,0,0,0,0,0,0,19,20,21,0,0,0,0,0,0,0,0,0,0,0,0,0,0,0,0,0,0,0,0,0,0,0,0,0,0,0,1610612737,1610612752,1610612767,0,0,0,0,0,0,0,0,0,
0,0,0,0,0,0,0,0,0,0,0,0,0,0,0,0,0,0,34,35,36,0,0,0,2684354594,2684354579,2684354564,0,0,0,0,0,0,0,0,0,0,0,0,0,0,0,0,0,0,0,0,0,0,0,0,0,0,0,0,0,0,0,0,0,
0,0,0,0,0,0,0,0,0,0,0,0,0,0,0,0,0,0,0,0,0,0,0,0,2684354595,2684354580,2684354565,0,0,0,0,0,0,0,0,0,0,0,0,0,0,0,0,0,0,0,0,0,0,0,0,0,2684354591,2684354576,2684354561,0,0,0,0,0,
0,0,0,0,0,0,0,0,0,0,0,0,0,0,0,0,0,0,0,0,0,0,0,0,2684354596,2684354581,2684354566,0,0,0,0,0,0,0,0,0,0,0,0,0,0,0,0,0,0,0,0,0,0,0,0,0,2684354592,2684354577,2684354562,0,0,0,0,0,
0,0,0,0,0,0,0,0,0,0,0,0,0,0,0,0,0,0,0,0,0,0,0,0,0,0,0,0,0,0,0,0,0,0,1610612787,0,0,0,0,0,0,0,0,0,0,0,0,0,0,0,0,0,2684354593,2684354578,2684354563,0,0,0,0,0,
0,0,0,0,3221225505,3221225504,3221225503,0,0,0,0,0,0,0,0,0,0,3221225505,3221225504,3221225503,0,0,0,0,0,0,0,0,0,0,0,0,0,0,1610612786,0,0,0,0,0,0,0,0,0,0,0,0,0,0,0,0,0,0,0,0,0,0,0,0,0,
0,0,0,0,3221225490,3221225489,3221225488,0,0,0,0,0,0,0,0,0,0,3221225490,3221225489,3221225488,0,0,0,0,0,0,0,0,0,0,0,0,0,0,1610612785,0,0,0,0,0,0,0,0,0,0,0,0,0,0,0,0,0,0,0,0,0,0,0,0,0,
0,0,0,0,3221225475,3221225474,3221225473,0,0,0,0,0,0,0,0,0,0,3221225475,3221225474,3221225473,0,0,0,0,0,0,0,0,0,0,0,0,0,0,1610612784,0,0,0,0,0,0,0,0,0,0,0,0,0,0,0,0,0,0,0,0,0,0,0,0,0,
0,0,0,0,0,0,0,0,0,0,0,0,0,0,0,0,0,0,0,0,0,0,0,0,0,0,0,0,0,0,0,0,0,0,1610612783,0,0,0,0,1610612739,1610612754,1610612769,0,0,0,2684354591,2684354576,2684354561,0,0,0,0,0,0,0,0,0,0,0,0,
0,0,0,0,0,0,0,0,0,0,0,0,0,0,0,0,0,0,0,0,0,0,0,0,0,0,0,0,0,0,0,0,0,0,1610612782,0,0,0,0,1610612738,1610612753,1610612768,0,0,0,2684354592,2684354577,2684354562,0,0,0,0,0,0,0,0,0,0,0,0,
0,0,0,0,0,0,0,0,0,0,0,0,0,0,0,0,0,0,0,0,0,0,0,0,0,0,0,0,0,0,0,0,0,0,0,0,0,0,0,1610612737,1610612752,1610612767,0,0,0,2684354593,2684354578,2684354563,0,0,0,0,0,0,0,0,0,0,0,0,
0,0,0,0,0,0,0,0,0,0,0,0,0,0,0,0,0,0,0,0,0,0,0,0,0,0,0,0,0,0,0,0,0,0,0,0,0,0,0,0,0,0,0,0,0,0,0,0,0,0,0,0,0,0,0,0,0,0,0,0,
0,0,0,0,0,0,0,0,0,0,0,0,0,0,0,0,0,0,0,0,0,0,0,0,0,0,0,0,0,0,0,0,0,0,0,0,0,0,0,0,0,0,0,0,0,0,0,0,0,0,0,0,0,0,0,0,0,0,0,0,
0,0,0,0,0,0,0,0,0,0,0,0,0,0,0,0,0,0,0,0,0,0,0,0,0,0,0,0,0,0,0,0,0,0,0,0,0,0,0,0,0,0,0,0,0,0,0,0,0,0,0,0,0,0,0,0,0,0,0,0,
0,3221225505,3221225504,3221225503,0,0,0,0,0,0,0,0,0,0,3221225505,3221225504,3221225503,0,0,0,0,0,0,0,0,0,0,0,0,0,0,0,0,0,0,0,0,0,0,0,0,0,0,0,0,0,0,0,0,0,0,0,0,0,0,0,0,0,0,0,
0,3221225490,3221225489,3221225488,0,0,0,0,0,0,0,0,0,0,3221225490,3221225489,3221225488,0,0,0,0,0,0,0,0,0,0,0,0,2684354768,2684354753,0,0,0,3221225682,3221225681,3221225680,0,0,1610612739,1610612754,1610612769,0,0,0,0,0,0,0,0,0,0,0,0,0,0,0,0,0,0,
0,3221225475,3221225474,3221225473,0,0,0,0,0,0,0,0,0,0,3221225475,3221225474,3221225473,0,0,0,0,0,0,0,0,0,0,0,0,2684354769,2684354754,0,0,0,3221225667,3221225666,3221225665,0,0,1610612738,1610612753,1610612768,0,0,0,0,0,0,0,0,0,0,0,0,0,0,0,0,0,0,
0,0,0,0,0,0,0,4,5,6,0,0,0,0,0,0,4,5,6,0,0,0,0,0,0,0,0,0,0,2684354770,2684354755,0,0,0,0,0,0,0,0,1610612737,1610612752,1610612767,0,0,0,0,0,0,0,0,0,0,0,0,0,0,0,0,0,0,
0,0,0,0,0,0,0,19,20,21,0,0,0,0,0,0,19,20,21,0,0,0,0,0,0,0,0,0,0,0,0,0,0,0,0,0,0,0,0,0,0,0,0,0,0,0,0,0,0,0,0,0,0,0,0,0,0,0,0,0,
0,0,0,0,0,0,0,34,35,36,0,0,0,0,0,0,34,35,36,0,0,0,0,0,0,0,0,0,0,0,0,0,0,0,0,0,0,0,0,0,0,0,0,0,0,0,0,0,0,0,0,0,0,0,0,0,0,0,0,0,
0,0,0,0,0,0,0,0,0,0,0,0,0,0,0,0,0,0,0,0,0,0,0,0,0,0,0,0,0,0,0,0,0,0,0,0,0,0,0,0,0,0,0,0,0,0,0,0,0,0,0,0,0,0,0,0,0,0,0,0,
0,0,0,0,0,0,0,0,0,0,0,0,0,0,0,0,0,0,0,0,0,0,0,0,0,0,0,0,0,0,0,0,0,0,0,0,0,0,0,0,0,0,0,0,0,0,0,0,0,0,0,0,0,0,0,0,0,0,0,0,
0,0,0,0,0,0,0,0,0,0,0,0,0,0,0,0,0,0,0,0,0,0,0,0,0,0,0,0,0,0,0,0,0,0,0,0,0,0,0,0,0,0,0,0,0,0,0,0,0,0,0,0,0,0,0,0,0,0,0,0,
0,0,0,0,0,0,0,0,0,0,0,0,0,0,0,0,0,0,0,0,0,0,0,0,0,0,0,0,0,0,0,0,0,0,0,0,0,0,0,0,0,0,0,0,0,0,0,0,0,0,0,0,0,0,0,0,0,0,0,0,
0,0,0,0,0,0,0,0,0,0,0,0,0,0,0,0,0,0,0,0,0,0,0,0,0,0,0,0,0,0,0,0,0,0,0,0,0,0,0,0,0,0,0,0,0,0,0,0,0,0,0,0,0,0,0,0,0,0,0,0,
0,0,0,0,0,0,0,0,0,0,3221225508,3221225507,3221225506,3221225505,3221225504,3221225503,0,0,0,0,3221225505,3221225504,3221225503,0,0,0,3221225505,3221225504,3221225503,0,0,0,0,0,0,0,0,0,0,0,0,3221225505,3221225504,3221225503,0,0,0,0,0,0,0,0,0,0,0,0,0,0,0,0,
0,0,0,0,0,0,0,0,0,0,3221225493,3221225492,3221225491,3221225490,3221225489,3221225488,0,0,0,0,3221225490,3221225489,3221225488,0,0,0,3221225490,3221225489,3221225488,0,0,0,0,0,0,0,0,0,0,0,0,3221225490,3221225489,3221225488,0,0,0,0,0,0,0,0,0,0,0,0,0,0,0,0,
0,0,0,0,0,0,0,0,0,0,3221225478,3221225477,3221225476,3221225475,3221225474,3221225473,0,0,0,0,3221225475,3221225474,3221225473,0,0,0,3221225475,3221225474,3221225473,0,0,0,0,0,0,0,0,0,0,0,0,3221225475,3221225474,3221225473,0,0,0,0,0,0,0,0,0,0,0,0,0,0,0,0,
0,0,0,0,0,0,0,0,0,0,0,0,0,0,0,0,0,0,0,0,0,0,0,0,0,0,0,0,0,0,0,0,0,0,0,0,0,0,0,0,0,0,0,0,0,0,0,0,0,0,0,0,0,0,0,0,0,0,0,0,
0,0,0,0,0,0,0,0,0,0,0,0,0,0,0,0,0,0,0,0,0,0,0,0,0,0,0,0,0,0,0,0,0,0,0,0,0,0,0,0,0,0,0,0,0,0,0,0,0,0,0,0,0,0,0,0,0,0,0,0,
0,0,0,0,0,0,0,0,0,0,0,0,0,0,0,0,0,0,0,0,0,0,0,0,0,0,0,0,0,0,0,0,0,0,0,0,0,0,0,0,0,0,0,0,0,0,0,0,0,0,0,0,0,0,0,0,0,0,0,0,
0,0,0,0,0,0,0,0,0,0,0,0,0,0,0,0,0,0,0,0,0,0,0,0,0,0,0,0,0,0,0,0,0,0,0,0,0,0,0,0,0,0,0,0,0,0,0,0,0,0,0,0,0,0,0,0,0,0,0,0,
0,0,0,0,0,0,0,0,0,0,0,0,0,0,0,0,0,0,0,0,0,0,0,0,0,0,0,0,0,0,0,0,0,0,0,0,0,0,0,0,0,0,0,0,0,0,0,0,0,0,0,0,0,0,0,0,0,0,0,0,
0,0,0,0,0,0,0,0,0,0,0,0,0,0,0,0,0,0,0,0,0,0,0,0,0,0,0,0,0,0,0,0,0,0,0,0,0,0,0,0,0,0,0,0,0,0,0,0,0,0,0,0,0,0,0,0,0,0,0,0,
0,0,0,0,0,0,0,0,0,0,0,0,0,0,0,0,0,0,0,0,0,0,0,0,0,0,0,0,0,0,0,0,0,0,0,0,0,0,0,0,0,0,0,0,0,0,0,0,0,0,0,0,0,0,0,0,0,0,0,0
</data>
 </layer>
 <objectgroup id="11" name="World_Limit" visible="0">
  <object id="1" x="64" y="320" width="576" height="160"/>
  <object id="3" x="0" y="0" width="1440" height="128"/>
  <object id="4" x="1440" y="0" width="480" height="128"/>
  <object id="5" x="0" y="128" width="64" height="1056"/>
  <object id="6" x="0" y="1184" width="32" height="736"/>
  <object id="7" x="32" y="1632" width="1920" height="288"/>
  <object id="8" x="1696" y="800" width="256" height="832"/>
  <object id="9" x="1472" y="1056" width="320" height="192"/>
  <object id="10" x="1120" y="288" width="192" height="1024"/>
  <object id="11" x="1152" y="1312" width="160" height="32"/>
  <object id="12" x="1184" y="1344" width="128" height="64"/>
  <object id="13" x="800" y="320" width="128" height="1056"/>
  <object id="15" x="928" y="320" width="64" height="1024"/>
  <object id="16" x="160" y="640" width="672" height="192"/>
  <object id="17" x="64" y="992" width="576" height="192"/>
  <object id="18" x="32" y="1280" width="672" height="128"/>
  <object id="19" x="992" y="1440" width="128" height="224"/>
  <object id="20" x="1408" y="1440">
   <polygon points="0,0 64,64 160,0"/>
  </object>
  <object id="21" x="1312" y="704" width="288" height="128"/>
  <object id="22" x="1376" y="384" width="544" height="64"/>
  <object id="23" x="1696" y="128" width="224" height="288"/>
  <object id="24" x="1376" y="448" width="576" height="32"/>
  <object id="25" x="1696" y="480" width="64" height="256"/>
  <object id="26" x="1760" y="640" width="64" height="32"/>
  <object id="27" x="1760" y="480" width="160" height="32"/>
  <object id="28" x="1888" y="512" width="96" height="352"/>
  <object id="29" x="1120" y="288">
   <polygon points="0,0 64,-96 128,-96 192,0"/>
  </object>
  <object id="30" x="800" y="1376" width="128" height="32"/>
  <object id="31" x="1408" y="544">
   <polygon points="0,0 64,64 160,0"/>
  </object>
  <object id="33" x="352" y="256" width="160" height="64"/>
  <object id="34" x="1536" y="1056"/>
  <object id="35" x="2400" y="1248"/>
 </objectgroup>
</map>
